kora/panel/16/goldendict-scan-tray.svg

<svg xmlns="http://www.w3.org/2000/svg" width="16" height="16" version="1.1">
 <defs>
  <style id="current-color-scheme" type="text/css">
   .ColorScheme-Text { color:#dfdfdf; } .ColorScheme-Highlight { color:#4285f4; } .ColorScheme-NeutralText { color:#ff9800; } .ColorScheme-PositiveText { color:#4caf50; } .ColorScheme-NegativeText { color:#f44336; }
  </style>
 </defs>
 <path style="opacity:0.3;fill:currentColor" class="ColorScheme-Text" d="m1.801 1c-.443 0-.801.311-.801.699v11.602c0 .388.358.699.801.699h11.199v-4h-4v-1h4v-1h-1v-1h3v-5.301c0-.388-.358-.699-.801-.699h-5.199v4h2v1h-2v1h2v1h-2v-1h-3v1h-3v-1h2v-1h-2v-1h2v-1h-2v-1h2v-2zm8.199 2h3v1h-3zm2 2h1v1h-1zm-9 4h2v1h-2zm0 2h1v1h-1zm2 0h2v1h-2zm4 0h3v1h-3z" />
 <path style="fill:currentColor" class="ColorScheme-Text" d="m6 .5v5.5h2v-5.5s-.081-.5-1-.5-1 .5-1 .5z"/>
 <path style="fill:currentColor" class="ColorScheme-PositiveText" d="m14.5 13.739c.36 0 .653.293.653.653 0 .361-.293.653-.653.653s-.653-.292-.653-.653c0-.36.293-.653.653-.653zm-.5-5.739v5h1v-5z" />
</svg>

<svg xmlns="http://www.w3.org/2000/svg" width="16" height="16" version="1.1">
 <defs>
  <style id="current-color-scheme" type="text/css">
   .ColorScheme-Text { color:#dfdfdf; } .ColorScheme-Highlight { color:#4285f4; }
  </style>
 </defs>
 <path style="fill:currentColor" class="ColorScheme-Text" d="M 1.8007812 1 C 1.3575812 1 1 1.3114187 1 1.6992188 L 1 13.300781 C 1 13.68858 1.3575812 14 1.8007812 14 L 13 14 L 13 10 L 12 10 L 10 10 L 9 10 L 9 9 L 11 9 L 12 9 L 13 9 L 13 8 L 12 8 L 12 7 L 13 7 L 15 7 L 15 1.6992188 C 15 1.3114188 14.642419 1 14.199219 1 L 14 1 L 9 1 L 9 5 L 10 5 L 11 5 L 11 6 L 9 6 L 9 7 L 11 7 L 11 8 L 9 8 L 9 7 L 7 7 L 6 7 L 6 8 L 5 8 L 3 8 L 3 7 L 5 7 L 5 6 L 3 6 L 3 5 L 5 5 L 5 4 L 3 4 L 3 3 L 5 3 L 5 1 L 1.8007812 1 z M 10 3 L 13 3 L 13 4 L 12 4 L 11 4 L 10 4 L 10 3 z M 12 5 L 13 5 L 13 6 L 12 6 L 12 5 z M 3 9 L 5 9 L 5 10 L 3 10 L 3 9 z M 3 11 L 4 11 L 4 12 L 3 12 L 3 11 z M 5 11 L 6 11 L 7 11 L 7 12 L 5 12 L 5 11 z M 9 11 L 10 11 L 12 11 L 12 12 L 9 12 L 9 11 z"/>
 <path style="opacity:0.3;fill:currentColor" class="ColorScheme-Text" d="M 5.9998,0.5 V 6 H 7 7.9998 V 0.5 C 7.9998,0.5 7.91867,0 7,0 6.081326,0 5.9998,0.5 5.9998,0.5 Z"/>
 <path style="fill:currentColor" class="ColorScheme-Highlight" d="m 14,8 v 5 h 1 V 8 Z m 0,6 v 1 h 1 v -1 z"/>
</svg>
